MARC/00_ASSETS_PRO/DESPIERTA_calido.cube
TITLE "DESPIERTA_calido.cube"
LUT_3D_SIZE 6
DOMAIN_MIN 0 0 0
DOMAIN_MAX 1 1 1
0.0200 0.0000 0.0000
0.2320 0.0000 0.0000
0.4440 0.0000 0.0000
0.6560 0.0000 0.0000
0.8680 0.0000 0.0000
1.0000 0.0000 0.0000
0.0200 0.2000 0.0000
0.2320 0.2000 0.0000
0.4440 0.2000 0.0000
0.6560 0.2000 0.0000
0.8680 0.2000 0.0000
1.0000 0.2000 0.0000
0.0200 0.4000 0.0000
0.2320 0.4000 0.0000
0.4440 0.4000 0.0000
0.6560 0.4000 0.0000
0.8680 0.4000 0.0000
1.0000 0.4000 0.0000
0.0200 0.6000 0.0000
0.2320 0.6000 0.0000
0.4440 0.6000 0.0000
0.6560 0.6000 0.0000
0.8680 0.6000 0.0000
1.0000 0.6000 0.0000
0.0200 0.8000 0.0000
0.2320 0.8000 0.0000
0.4440 0.8000 0.0000
0.6560 0.8000 0.0000
0.8680 0.8000 0.0000
1.0000 0.8000 0.0000
0.0200 1.0000 0.0000
0.2320 1.0000 0.0000
0.4440 1.0000 0.0000
0.6560 1.0000 0.0000
0.8680 1.0000 0.0000
1.0000 1.0000 0.0000
0.0200 0.0000 0.1840
0.2320 0.0000 0.1840
0.4440 0.0000 0.1840
0.6560 0.0000 0.1840
0.8680 0.0000 0.1840
1.0000 0.0000 0.1840
0.0200 0.2000 0.1840
0.2320 0.2000 0.1840
0.4440 0.2000 0.1840
0.6560 0.2000 0.1840
0.8680 0.2000 0.1840
1.0000 0.2000 0.1840
0.0200 0.4000 0.1840
0.2320 0.4000 0.1840
0.4440 0.4000 0.1840
0.6560 0.4000 0.1840
0.8680 0.4000 0.1840
1.0000 0.4000 0.1840
0.0200 0.6000 0.1840
0.2320 0.6000 0.1840
0.4440 0.6000 0.1840
0.6560 0.6000 0.1840
0.8680 0.6000 0.1840
1.0000 0.6000 0.1840
0.0200 0.8000 0.1840
0.2320 0.8000 0.1840
0.4440 0.8000 0.1840
0.6560 0.8000 0.1840
0.8680 0.8000 0.1840
1.0000 0.8000 0.1840
0.0200 1.0000 0.1840
0.2320 1.0000 0.1840
0.4440 1.0000 0.1840
0.6560 1.0000 0.1840
0.8680 1.0000 0.1840
1.0000 1.0000 0.1840
0.0200 0.0000 0.3680
0.2320 0.0000 0.3680
0.4440 0.0000 0.3680
0.6560 0.0000 0.3680
0.8680 0.0000 0.3680
1.0000 0.0000 0.3680
0.0200 0.2000 0.3680
0.2320 0.2000 0.3680
0.4440 0.2000 0.3680
0.6560 0.2000 0.3680
0.8680 0.2000 0.3680
1.0000 0.2000 0.3680
0.0200 0.4000 0.3680
0.2320 0.4000 0.3680
0.4440 0.4000 0.3680
0.6560 0.4000 0.3680
0.8680 0.4000 0.3680
1.0000 0.4000 0.3680
0.0200 0.6000 0.3680
0.2320 0.6000 0.3680
0.4440 0.6000 0.3680
0.6560 0.6000 0.3680
0.8680 0.6000 0.3680
1.0000 0.6000 0.3680
0.0200 0.8000 0.3680
0.2320 0.8000 0.3680
0.4440 0.8000 0.3680
0.6560 0.8000 0.3680
0.8680 0.8000 0.3680
1.0000 0.8000 0.3680
0.0200 1.0000 0.3680
0.2320 1.0000 0.3680
0.4440 1.0000 0.3680
0.6560 1.0000 0.3680
0.8680 1.0000 0.3680
1.0000 1.0000 0.3680
0.0200 0.0000 0.5520
0.2320 0.0000 0.5520
0.4440 0.0000 0.5520
0.6560 0.0000 0.5520
0.8680 0.0000 0.5520
1.0000 0.0000 0.5520
0.0200 0.2000 0.5520
0.2320 0.2000 0.5520
0.4440 0.2000 0.5520
0.6560 0.2000 0.5520
0.8680 0.2000 0.5520
1.0000 0.2000 0.5520
0.0200 0.4000 0.5520
0.2320 0.4000 0.5520
0.4440 0.4000 0.5520
0.6560 0.4000 0.5520
0.8680 0.4000 0.5520
1.0000 0.4000 0.5520
0.0200 0.6000 0.5520
0.2320 0.6000 0.5520
0.4440 0.6000 0.5520
0.6560 0.6000 0.5520
0.8680 0.6000 0.5520
1.0000 0.6000 0.5520
0.0200 0.8000 0.5520
0.2320 0.8000 0.5520
0.4440 0.8000 0.5520
0.6560 0.8000 0.5520
0.8680 0.8000 0.5520
1.0000 0.8000 0.5520
0.0200 1.0000 0.5520
0.2320 1.0000 0.5520
0.4440 1.0000 0.5520
0.6560 1.0000 0.5520
0.8680 1.0000 0.5520
1.0000 1.0000 0.5520
0.0200 0.0000 0.7360
0.2320 0.0000 0.7360
0.4440 0.0000 0.7360
0.6560 0.0000 0.7360
0.8680 0.0000 0.7360
1.0000 0.0000 0.7360
0.0200 0.2000 0.7360
0.2320 0.2000 0.7360
0.4440 0.2000 0.7360
0.6560 0.2000 0.7360
0.8680 0.2000 0.7360
1.0000 0.2000 0.7360
0.0200 0.4000 0.7360
0.2320 0.4000 0.7360
0.4440 0.4000 0.7360
0.6560 0.4000 0.7360
0.8680 0.4000 0.7360
1.0000 0.4000 0.7360
0.0200 0.6000 0.7360
0.2320 0.6000 0.7360
0.4440 0.6000 0.7360
0.6560 0.6000 0.7360
0.8680 0.6000 0.7360
1.0000 0.6000 0.7360
0.0200 0.8000 0.7360
0.2320 0.8000 0.7360
0.4440 0.8000 0.7360
0.6560 0.8000 0.7360
0.8680 0.8000 0.7360
1.0000 0.8000 0.7360
0.0200 1.0000 0.7360
0.2320 1.0000 0.7360
0.4440 1.0000 0.7360
0.6560 1.0000 0.7360
0.8680 1.0000 0.7360
1.0000 1.0000 0.7360
0.0200 0.0000 0.9200
0.2320 0.0000 0.9200
0.4440 0.0000 0.9200
0.6560 0.0000 0.9200
0.8680 0.0000 0.9200
1.0000 0.0000 0.9200
0.0200 0.2000 0.9200
0.2320 0.2000 0.9200
0.4440 0.2000 0.9200
0.6560 0.2000 0.9200
0.8680 0.2000 0.9200
1.0000 0.2000 0.9200
0.0200 0.4000 0.9200
0.2320 0.4000 0.9200
0.4440 0.4000 0.9200
0.6560 0.4000 0.9200
0.8680 0.4000 0.9200
1.0000 0.4000 0.9200
0.0200 0.6000 0.9200
0.2320 0.6000 0.9200
0.4440 0.6000 0.9200
0.6560 0.6000 0.9200
0.8680 0.6000 0.9200
1.0000 0.6000 0.9200
0.0200 0.8000 0.9200
0.2320 0.8000 0.9200
0.4440 0.8000 0.9200
0.6560 0.8000 0.9200
0.8680 0.8000 0.9200
1.0000 0.8000 0.9200
0.0200 1.0000 0.9200
0.2320 1.0000 0.9200
0.4440 1.0000 0.9200
0.6560 1.0000 0.9200
0.8680 1.0000 0.9200
1.0000 1.0000 0.9200
