MARC/00_ASSETS_PRO/DESPIERTA_calido.cube
TITLE "DESPIERTA_calido.cube"
LUT_3D_SIZE 16
DOMAIN_MIN 0 0 0
DOMAIN_MAX 1 1 1
0.0200 0.0000 0.0000
0.0907 0.0000 0.0000
0.1613 0.0000 0.0000
0.2320 0.0000 0.0000
0.3027 0.0000 0.0000
0.3733 0.0000 0.0000
0.4440 0.0000 0.0000
0.5147 0.0000 0.0000
0.5853 0.0000 0.0000
0.6560 0.0000 0.0000
0.7267 0.0000 0.0000
0.7973 0.0000 0.0000
0.8680 0.0000 0.0000
0.9387 0.0000 0.0000
1.0000 0.0000 0.0000
1.0000 0.0000 0.0000
0.0200 0.0667 0.0000
0.0907 0.0667 0.0000
0.1613 0.0667 0.0000
0.2320 0.0667 0.0000
0.3027 0.0667 0.0000
0.3733 0.0667 0.0000
0.4440 0.0667 0.0000
0.5147 0.0667 0.0000
0.5853 0.0667 0.0000
0.6560 0.0667 0.0000
0.7267 0.0667 0.0000
0.7973 0.0667 0.0000
0.8680 0.0667 0.0000
0.9387 0.0667 0.0000
1.0000 0.0667 0.0000
1.0000 0.0667 0.0000
0.0200 0.1333 0.0000
0.0907 0.1333 0.0000
0.1613 0.1333 0.0000
0.2320 0.1333 0.0000
0.3027 0.1333 0.0000
0.3733 0.1333 0.0000
0.4440 0.1333 0.0000
0.5147 0.1333 0.0000
0.5853 0.1333 0.0000
0.6560 0.1333 0.0000
0.7267 0.1333 0.0000
0.7973 0.1333 0.0000
0.8680 0.1333 0.0000
0.9387 0.1333 0.0000
1.0000 0.1333 0.0000
1.0000 0.1333 0.0000
0.0200 0.2000 0.0000
0.0907 0.2000 0.0000
0.1613 0.2000 0.0000
0.2320 0.2000 0.0000
0.3027 0.2000 0.0000
0.3733 0.2000 0.0000
0.4440 0.2000 0.0000
0.5147 0.2000 0.0000
0.5853 0.2000 0.0000
0.6560 0.2000 0.0000
0.7267 0.2000 0.0000
0.7973 0.2000 0.0000
0.8680 0.2000 0.0000
0.9387 0.2000 0.0000
1.0000 0.2000 0.0000
1.0000 0.2000 0.0000
0.0200 0.2667 0.0000
0.0907 0.2667 0.0000
0.1613 0.2667 0.0000
0.2320 0.2667 0.0000
0.3027 0.2667 0.0000
0.3733 0.2667 0.0000
0.4440 0.2667 0.0000
0.5147 0.2667 0.0000
0.5853 0.2667 0.0000
0.6560 0.2667 0.0000
0.7267 0.2667 0.0000
0.7973 0.2667 0.0000
0.8680 0.2667 0.0000
0.9387 0.2667 0.0000
1.0000 0.2667 0.0000
1.0000 0.2667 0.0000
0.0200 0.3333 0.0000
0.0907 0.3333 0.0000
0.1613 0.3333 0.0000
0.2320 0.3333 0.0000
0.3027 0.3333 0.0000
0.3733 0.3333 0.0000
0.4440 0.3333 0.0000
0.5147 0.3333 0.0000
0.5853 0.3333 0.0000
0.6560 0.3333 0.0000
0.7267 0.3333 0.0000
0.7973 0.3333 0.0000
0.8680 0.3333 0.0000
0.9387 0.3333 0.0000
1.0000 0.3333 0.0000
1.0000 0.3333 0.0000
0.0200 0.4000 0.0000
0.0907 0.4000 0.0000
0.1613 0.4000 0.0000
0.2320 0.4000 0.0000
0.3027 0.4000 0.0000
0.3733 0.4000 0.0000
0.4440 0.4000 0.0000
0.5147 0.4000 0.0000
0.5853 0.4000 0.0000
0.6560 0.4000 0.0000
0.7267 0.4000 0.0000
0.7973 0.4000 0.0000
0.8680 0.4000 0.0000
0.9387 0.4000 0.0000
1.0000 0.4000 0.0000
1.0000 0.4000 0.0000
0.0200 0.4667 0.0000
0.0907 0.4667 0.0000
0.1613 0.4667 0.0000
0.2320 0.4667 0.0000
0.3027 0.4667 0.0000
0.3733 0.4667 0.0000
0.4440 0.4667 0.0000
0.5147 0.4667 0.0000
0.5853 0.4667 0.0000
0.6560 0.4667 0.0000
0.7267 0.4667 0.0000
0.7973 0.4667 0.0000
0.8680 0.4667 0.0000
0.9387 0.4667 0.0000
1.0000 0.4667 0.0000
1.0000 0.4667 0.0000
0.0200 0.5333 0.0000
0.0907 0.5333 0.0000
0.1613 0.5333 0.0000
0.2320 0.5333 0.0000
0.3027 0.5333 0.0000
0.3733 0.5333 0.0000
0.4440 0.5333 0.0000
0.5147 0.5333 0.0000
0.5853 0.5333 0.0000
0.6560 0.5333 0.0000
0.7267 0.5333 0.0000
0.7973 0.5333 0.0000
0.8680 0.5333 0.0000
0.9387 0.5333 0.0000
1.0000 0.5333 0.0000
1.0000 0.5333 0.0000
0.0200 0.6000 0.0000
0.0907 0.6000 0.0000
0.1613 0.6000 0.0000
0.2320 0.6000 0.0000
0.3027 0.6000 0.0000
0.3733 0.6000 0.0000
0.4440 0.6000 0.0000
0.5147 0.6000 0.0000
0.5853 0.6000 0.0000
0.6560 0.6000 0.0000
0.7267 0.6000 0.0000
0.7973 0.6000 0.0000
0.8680 0.6000 0.0000
0.9387 0.6000 0.0000
1.0000 0.6000 0.0000
1.0000 0.6000 0.0000
0.0200 0.6667 0.0000
0.0907 0.6667 0.0000
0.1613 0.6667 0.0000
0.2320 0.6667 0.0000
0.3027 0.6667 0.0000
0.3733 0.6667 0.0000
0.4440 0.6667 0.0000
0.5147 0.6667 0.0000
0.5853 0.6667 0.0000
0.6560 0.6667 0.0000
0.7267 0.6667 0.0000
0.7973 0.6667 0.0000
0.8680 0.6667 0.0000
0.9387 0.6667 0.0000
1.0000 0.6667 0.0000
1.0000 0.6667 0.0000
0.0200 0.7333 0.0000
0.0907 0.7333 0.0000
0.1613 0.7333 0.0000
0.2320 0.7333 0.0000
0.3027 0.7333 0.0000
0.3733 0.7333 0.0000
0.4440 0.7333 0.0000
0.5147 0.7333 0.0000
0.5853 0.7333 0.0000
0.6560 0.7333 0.0000
0.7267 0.7333 0.0000
0.7973 0.7333 0.0000
0.8680 0.7333 0.0000
0.9387 0.7333 0.0000
1.0000 0.7333 0.0000
1.0000 0.7333 0.0000
0.0200 0.8000 0.0000
0.0907 0.8000 0.0000
0.1613 0.8000 0.0000
0.2320 0.8000 0.0000
0.3027 0.8000 0.0000
0.3733 0.8000 0.0000
0.4440 0.8000 0.0000
0.5147 0.8000 0.0000
0.5853 0.8000 0.0000
0.6560 0.8000 0.0000
0.7267 0.8000 0.0000
0.7973 0.8000 0.0000
0.8680 0.8000 0.0000
0.9387 0.8000 0.0000
1.0000 0.8000 0.0000
1.0000 0.8000 0.0000
0.0200 0.8667 0.0000
0.0907 0.8667 0.0000
0.1613 0.8667 0.0000
0.2320 0.8667 0.0000
0.3027 0.8667 0.0000
0.3733 0.8667 0.0000
0.4440 0.8667 0.0000
0.5147 0.8667 0.0000
0.5853 0.8667 0.0000
0.6560 0.8667 0.0000
0.7267 0.8667 0.0000
0.7973 0.8667 0.0000
0.8680 0.8667 0.0000
0.9387 0.8667 0.0000
1.0000 0.8667 0.0000
1.0000 0.8667 0.0000
0.0200 0.9333 0.0000
0.0907 0.9333 0.0000
0.1613 0.9333 0.0000
0.2320 0.9333 0.0000
0.3027 0.9333 0.0000
0.3733 0.9333 0.0000
0.4440 0.9333 0.0000
0.5147 0.9333 0.0000
0.5853 0.9333 0.0000
0.6560 0.9333 0.0000
0.7267 0.9333 0.0000
0.7973 0.9333 0.0000
0.8680 0.9333 0.0000
0.9387 0.9333 0.0000
1.0000 0.9333 0.0000
1.0000 0.9333 0.0000
0.0200 1.0000 0.0000
0.0907 1.0000 0.0000
0.1613 1.0000 0.0000
0.2320 1.0000 0.0000
0.3027 1.0000 0.0000
0.3733 1.0000 0.0000
0.4440 1.0000 0.0000
0.5147 1.0000 0.0000
0.5853 1.0000 0.0000
0.6560 1.0000 0.0000
0.7267 1.0000 0.0000
0.7973 1.0000 0.0000
0.8680 1.0000 0.0000
0.9387 1.0000 0.0000
1.0000 1.0000 0.0000
1.0000 1.0000 0.0000
0.0200 0.0000 0.0613
0.0907 0.0000 0.0613
0.1613 0.0000 0.0613
0.2320 0.0000 0.0613
0.3027 0.0000 0.0613
0.3733 0.0000 0.0613
0.4440 0.0000 0.0613
0.5147 0.0000 0.0613
0.5853 0.0000 0.0613
0.6560 0.0000 0.0613
0.7267 0.0000 0.0613
0.7973 0.0000 0.0613
0.8680 0.0000 0.0613
0.9387 0.0000 0.0613
1.0000 0.0000 0.0613
1.0000 0.0000 0.0613
0.0200 0.0667 0.0613
0.0907 0.0667 0.0613
0.1613 0.0667 0.0613
0.2320 0.0667 0.0613
0.3027 0.0667 0.0613
0.3733 0.0667 0.0613
0.4440 0.0667 0.0613
0.5147 0.0667 0.0613
0.5853 0.0667 0.0613
0.6560 0.0667 0.0613
0.7267 0.0667 0.0613
0.7973 0.0667 0.0613
0.8680 0.0667 0.0613
0.9387 0.0667 0.0613
1.0000 0.0667 0.0613
1.0000 0.0667 0.0613
0.0200 0.1333 0.0613
0.0907 0.1333 0.0613
0.1613 0.1333 0.0613
0.2320 0.1333 0.0613
0.3027 0.1333 0.0613
0.3733 0.1333 0.0613
0.4440 0.1333 0.0613
0.5147 0.1333 0.0613
0.5853 0.1333 0.0613
0.6560 0.1333 0.0613
0.7267 0.1333 0.0613
0.7973 0.1333 0.0613
0.8680 0.1333 0.0613
0.9387 0.1333 0.0613
1.0000 0.1333 0.0613
1.0000 0.1333 0.0613
0.0200 0.2000 0.0613
0.0907 0.2000 0.0613
0.1613 0.2000 0.0613
0.2320 0.2000 0.0613
0.3027 0.2000 0.0613
0.3733 0.2000 0.0613
0.4440 0.2000 0.0613
0.5147 0.2000 0.0613
0.5853 0.2000 0.0613
0.6560 0.2000 0.0613
0.7267 0.2000 0.0613
0.7973 0.2000 0.0613
0.8680 0.2000 0.0613
0.9387 0.2000 0.0613
1.0000 0.2000 0.0613
1.0000 0.2000 0.0613
0.0200 0.2667 0.0613
0.0907 0.2667 0.0613
0.1613 0.2667 0.0613
0.2320 0.2667 0.0613
0.3027 0.2667 0.0613
0.3733 0.2667 0.0613
0.4440 0.2667 0.0613
0.5147 0.2667 0.0613
0.5853 0.2667 0.0613
0.6560 0.2667 0.0613
0.7267 0.2667 0.0613
0.7973 0.2667 0.0613
0.8680 0.2667 0.0613
0.9387 0.2667 0.0613
1.0000 0.2667 0.0613
1.0000 0.2667 0.0613
0.0200 0.3333 0.0613
0.0907 0.3333 0.0613
0.1613 0.3333 0.0613
0.2320 0.3333 0.0613
0.3027 0.3333 0.0613
0.3733 0.3333 0.0613
0.4440 0.3333 0.0613
0.5147 0.3333 0.0613
0.5853 0.3333 0.0613
0.6560 0.3333 0.0613
0.7267 0.3333 0.0613
0.7973 0.3333 0.0613
0.8680 0.3333 0.0613
0.9387 0.3333 0.0613
1.0000 0.3333 0.0613
1.0000 0.3333 0.0613
0.0200 0.4000 0.0613
0.0907 0.4000 0.0613
0.1613 0.4000 0.0613
0.2320 0.4000 0.0613
0.3027 0.4000 0.0613
0.3733 0.4000 0.0613
0.4440 0.4000 0.0613
0.5147 0.4000 0.0613
0.5853 0.4000 0.0613
0.6560 0.4000 0.0613
0.7267 0.4000 0.0613
0.7973 0.4000 0.0613
0.8680 0.4000 0.0613
0.9387 0.4000 0.0613
1.0000 0.4000 0.0613
1.0000 0.4000 0.0613
0.0200 0.4667 0.0613
0.0907 0.4667 0.0613
0.1613 0.4667 0.0613
0.2320 0.4667 0.0613
0.3027 0.4667 0.0613
0.3733 0.4667 0.0613
0.4440 0.4667 0.0613
0.5147 0.4667 0.0613
0.5853 0.4667 0.0613
0.6560 0.4667 0.0613
0.7267 0.4667 0.0613
0.7973 0.4667 0.0613
0.8680 0.4667 0.0613
0.9387 0.4667 0.0613
1.0000 0.4667 0.0613
1.0000 0.4667 0.0613
0.0200 0.5333 0.0613
0.0907 0.5333 0.0613
0.1613 0.5333 0.0613
0.2320 0.5333 0.0613
0.3027 0.5333 0.0613
0.3733 0.5333 0.0613
0.4440 0.5333 0.0613
0.5147 0.5333 0.0613
0.5853 0.5333 0.0613
0.6560 0.5333 0.0613
0.7267 0.5333 0.0613
0.7973 0.5333 0.0613
0.8680 0.5333 0.0613
0.9387 0.5333 0.0613
1.0000 0.5333 0.0613
1.0000 0.5333 0.0613
0.0200 0.6000 0.0613
0.0907 0.6000 0.0613
0.1613 0.6000 0.0613
0.2320 0.6000 0.0613
0.3027 0.6000 0.0613
0.3733 0.6000 0.0613
0.4440 0.6000 0.0613
0.5147 0.6000 0.0613
0.5853 0.6000 0.0613
0.6560 0.6000 0.0613
0.7267 0.6000 0.0613
0.7973 0.6000 0.0613
0.8680 0.6000 0.0613
0.9387 0.6000 0.0613
1.0000 0.6000 0.0613
1.0000 0.6000 0.0613
0.0200 0.6667 0.0613
0.0907 0.6667 0.0613
0.1613 0.6667 0.0613
0.2320 0.6667 0.0613
0.3027 0.6667 0.0613
0.3733 0.6667 0.0613
0.4440 0.6667 0.0613
0.5147 0.6667 0.0613
0.5853 0.6667 0.0613
0.6560 0.6667 0.0613
0.7267 0.6667 0.0613
0.7973 0.6667 0.0613
0.8680 0.6667 0.0613
0.9387 0.6667 0.0613
1.0000 0.6667 0.0613
1.0000 0.6667 0.0613
0.0200 0.7333 0.0613
0.0907 0.7333 0.0613
0.1613 0.7333 0.0613
0.2320 0.7333 0.0613
0.3027 0.7333 0.0613
0.3733 0.7333 0.0613
0.4440 0.7333 0.0613
0.5147 0.7333 0.0613
0.5853 0.7333 0.0613
0.6560 0.7333 0.0613
0.7267 0.7333 0.0613
0.7973 0.7333 0.0613
0.8680 0.7333 0.0613
0.9387 0.7333 0.0613
1.0000 0.7333 0.0613
1.0000 0.7333 0.0613
0.0200 0.8000 0.0613
0.0907 0.8000 0.0613
0.1613 0.8000 0.0613
0.2320 0.8000 0.0613
0.3027 0.8000 0.0613
0.3733 0.8000 0.0613
0.4440 0.8000 0.0613
0.5147 0.8000 0.0613
0.5853 0.8000 0.0613
0.6560 0.8000 0.0613
0.7267 0.8000 0.0613
0.7973 0.8000 0.0613
0.8680 0.8000 0.0613
0.9387 0.8000 0.0613
1.0000 0.8000 0.0613
1.0000 0.8000 0.0613
0.0200 0.8667 0.0613
0.0907 0.8667 0.0613
0.1613 0.8667 0.0613
0.2320 0.8667 0.0613
0.3027 0.8667 0.0613
0.3733 0.8667 0.0613
0.4440 0.8667 0.0613
0.5147 0.8667 0.0613
0.5853 0.8667 0.0613
0.6560 0.8667 0.0613
0.7267 0.8667 0.0613
0.7973 0.8667 0.0613
0.8680 0.8667 0.0613
0.9387 0.8667 0.0613
1.0000 0.8667 0.0613
1.0000 0.8667 0.0613
0.0200 0.9333 0.0613
0.0907 0.9333 0.0613
0.1613 0.9333 0.0613
0.2320 0.9333 0.0613
0.3027 0.9333 0.0613
0.3733 0.9333 0.0613
0.4440 0.9333 0.0613
0.5147 0.9333 0.0613
0.5853 0.9333 0.0613
0.6560 0.9333 0.0613
0.7267 0.9333 0.0613
0.7973 0.9333 0.0613
0.8680 0.9333 0.0613
0.9387 0.9333 0.0613
1.0000 0.9333 0.0613
1.0000 0.9333 0.0613
0.0200 1.0000 0.0613
0.0907 1.0000 0.0613
0.1613 1.0000 0.0613
0.2320 1.0000 0.0613
0.3027 1.0000 0.0613
0.3733 1.0000 0.0613
0.4440 1.0000 0.0613
0.5147 1.0000 0.0613
0.5853 1.0000 0.0613
0.6560 1.0000 0.0613
0.7267 1.0000 0.0613
0.7973 1.0000 0.0613
0.8680 1.0000 0.0613
0.9387 1.0000 0.0613
1.0000 1.0000 0.0613
1.0000 1.0000 0.0613
0.0200 0.0000 0.1227
0.0907 0.0000 0.1227
0.1613 0.0000 0.1227
0.2320 0.0000 0.1227
0.3027 0.0000 0.1227
0.3733 0.0000 0.1227
0.4440 0.0000 0.1227
0.5147 0.0000 0.1227
0.5853 0.0000 0.1227
0.6560 0.0000 0.1227
0.7267 0.0000 0.1227
0.7973 0.0000 0.1227
0.8680 0.0000 0.1227
0.9387 0.0000 0.1227
1.0000 0.0000 0.1227
1.0000 0.0000 0.1227
0.0200 0.0667 0.1227
0.0907 0.0667 0.1227
0.1613 0.0667 0.1227
0.2320 0.0667 0.1227
0.3027 0.0667 0.1227
0.3733 0.0667 0.1227
0.4440 0.0667 0.1227
0.5147 0.0667 0.1227
0.5853 0.0667 0.1227
0.6560 0.0667 0.1227
0.7267 0.0667 0.1227
0.7973 0.0667 0.1227
0.8680 0.0667 0.1227
0.9387 0.0667 0.1227
1.0000 0.0667 0.1227
1.0000 0.0667 0.1227
0.0200 0.1333 0.1227
0.0907 0.1333 0.1227
0.1613 0.1333 0.1227
0.2320 0.1333 0.1227
0.3027 0.1333 0.1227
0.3733 0.1333 0.1227
0.4440 0.1333 0.1227
0.5147 0.1333 0.1227
0.5853 0.1333 0.1227
0.6560 0.1333 0.1227
0.7267 0.1333 0.1227
0.7973 0.1333 0.1227
0.8680 0.1333 0.1227
0.9387 0.1333 0.1227
1.0000 0.1333 0.1227
1.0000 0.1333 0.1227
0.0200 0.2000 0.1227
0.0907 0.2000 0.1227
0.1613 0.2000 0.1227
0.2320 0.2000 0.1227
0.3027 0.2000 0.1227
0.3733 0.2000 0.1227
0.4440 0.2000 0.1227
0.5147 0.2000 0.1227
0.5853 0.2000 0.1227
0.6560 0.2000 0.1227
0.7267 0.2000 0.1227
0.7973 0.2000 0.1227
0.8680 0.2000 0.1227
0.9387 0.2000 0.1227
1.0000 0.2000 0.1227
1.0000 0.2000 0.1227
0.0200 0.2667 0.1227
0.0907 0.2667 0.1227
0.1613 0.2667 0.1227
0.2320 0.2667 0.1227
0.3027 0.2667 0.1227
0.3733 0.2667 0.1227
0.4440 0.2667 0.1227
0.5147 0.2667 0.1227
0.5853 0.2667 0.1227
0.6560 0.2667 0.1227
0.7267 0.2667 0.1227
0.7973 0.2667 0.1227
0.8680 0.2667 0.1227
0.9387 0.2667 0.1227
1.0000 0.2667 0.1227
1.0000 0.2667 0.1227
0.0200 0.3333 0.1227
0.0907 0.3333 0.1227
0.1613 0.3333 0.1227
0.2320 0.3333 0.1227
0.3027 0.3333 0.1227
0.3733 0.3333 0.1227
0.4440 0.3333 0.1227
0.5147 0.3333 0.1227
0.5853 0.3333 0.1227
0.6560 0.3333 0.1227
0.7267 0.3333 0.1227
0.7973 0.3333 0.1227
0.8680 0.3333 0.1227
0.9387 0.3333 0.1227
1.0000 0.3333 0.1227
1.0000 0.3333 0.1227
0.0200 0.4000 0.1227
0.0907 0.4000 0.1227
0.1613 0.4000 0.1227
0.2320 0.4000 0.1227
0.3027 0.4000 0.1227
0.3733 0.4000 0.1227
0.4440 0.4000 0.1227
0.5147 0.4000 0.1227
0.5853 0.4000 0.1227
0.6560 0.4000 0.1227
0.7267 0.4000 0.1227
0.7973 0.4000 0.1227
0.8680 0.4000 0.1227
0.9387 0.4000 0.1227
1.0000 0.4000 0.1227
1.0000 0.4000 0.1227
0.0200 0.4667 0.1227
0.0907 0.4667 0.1227
0.1613 0.4667 0.1227
0.2320 0.4667 0.1227
0.3027 0.4667 0.1227
0.3733 0.4667 0.1227
0.4440 0.4667 0.1227
0.5147 0.4667 0.1227
0.5853 0.4667 0.1227
0.6560 0.4667 0.1227
0.7267 0.4667 0.1227
0.7973 0.4667 0.1227
0.8680 0.4667 0.1227
0.9387 0.4667 0.1227
1.0000 0.4667 0.1227
1.0000 0.4667 0.1227
0.0200 0.5333 0.1227
0.0907 0.5333 0.1227
0.1613 0.5333 0.1227
0.2320 0.5333 0.1227
0.3027 0.5333 0.1227
0.3733 0.5333 0.1227
0.4440 0.5333 0.1227
0.5147 0.5333 0.1227
0.5853 0.5333 0.1227
0.6560 0.5333 0.1227
0.7267 0.5333 0.1227
0.7973 0.5333 0.1227
0.8680 0.5333 0.1227
0.9387 0.5333 0.1227
1.0000 0.5333 0.1227
1.0000 0.5333 0.1227
0.0200 0.6000 0.1227
0.0907 0.6000 0.1227
0.1613 0.6000 0.1227
0.2320 0.6000 0.1227
0.3027 0.6000 0.1227
0.3733 0.6000 0.1227
0.4440 0.6000 0.1227
0.5147 0.6000 0.1227
0.5853 0.6000 0.1227
0.6560 0.6000 0.1227
0.7267 0.6000 0.1227
0.7973 0.6000 0.1227
0.8680 0.6000 0.1227
0.9387 0.6000 0.1227
1.0000 0.6000 0.1227
1.0000 0.6000 0.1227
0.0200 0.6667 0.1227
0.0907 0.6667 0.1227
0.1613 0.6667 0.1227
0.2320 0.6667 0.1227
0.3027 0.6667 0.1227
0.3733 0.6667 0.1227
0.4440 0.6667 0.1227
0.5147 0.6667 0.1227
0.5853 0.6667 0.1227
0.6560 0.6667 0.1227
0.7267 0.6667 0.1227
0.7973 0.6667 0.1227
0.8680 0.6667 0.1227
0.9387 0.6667 0.1227
1.0000 0.6667 0.1227
1.0000 0.6667 0.1227
0.0200 0.7333 0.1227
0.0907 0.7333 0.1227
0.1613 0.7333 0.1227
0.2320 0.7333 0.1227
0.3027 0.7333 0.1227
0.3733 0.7333 0.1227
0.4440 0.7333 0.1227
0.5147 0.7333 0.1227
0.5853 0.7333 0.1227
0.6560 0.7333 0.1227
0.7267 0.7333 0.1227
0.7973 0.7333 0.1227
0.8680 0.7333 0.1227
0.9387 0.7333 0.1227
1.0000 0.7333 0.1227
1.0000 0.7333 0.1227
0.0200 0.8000 0.1227
0.0907 0.8000 0.1227
0.1613 0.8000 0.1227
0.2320 0.8000 0.1227
0.3027 0.8000 0.1227
0.3733 0.8000 0.1227
0.4440 0.8000 0.1227
0.5147 0.8000 0.1227
0.5853 0.8000 0.1227
0.6560 0.8000 0.1227
0.7267 0.8000 0.1227
0.7973 0.8000 0.1227
0.8680 0.8000 0.1227
0.9387 0.8000 0.1227
1.0000 0.8000 0.1227
1.0000 0.8000 0.1227
0.0200 0.8667 0.1227
0.0907 0.8667 0.1227
0.1613 0.8667 0.1227
0.2320 0.8667 0.1227
0.3027 0.8667 0.1227
0.3733 0.8667 0.1227
0.4440 0.8667 0.1227
0.5147 0.8667 0.1227
0.5853 0.8667 0.1227
0.6560 0.8667 0.1227
0.7267 0.8667 0.1227
0.7973 0.8667 0.1227
0.8680 0.8667 0.1227
0.9387 0.8667 0.1227
1.0000 0.8667 0.1227
1.0000 0.8667 0.1227
0.0200 0.9333 0.1227
0.0907 0.9333 0.1227
0.1613 0.9333 0.1227
0.2320 0.9333 0.1227
0.3027 0.9333 0.1227
0.3733 0.9333 0.1227
0.4440 0.9333 0.1227
0.5147 0.9333 0.1227
0.5853 0.9333 0.1227
0.6560 0.9333 0.1227
0.7267 0.9333 0.1227
0.7973 0.9333 0.1227
0.8680 0.9333 0.1227
0.9387 0.9333 0.1227
1.0000 0.9333 0.1227
1.0000 0.9333 0.1227
0.0200 1.0000 0.1227
0.0907 1.0000 0.1227
0.1613 1.0000 0.1227
0.2320 1.0000 0.1227
0.3027 1.0000 0.1227
0.3733 1.0000 0.1227
0.4440 1.0000 0.1227
0.5147 1.0000 0.1227
0.5853 1.0000 0.1227
0.6560 1.0000 0.1227
0.7267 1.0000 0.1227
0.7973 1.0000 0.1227
0.8680 1.0000 0.1227
0.9387 1.0000 0.1227
1.0000 1.0000 0.1227
1.0000 1.0000 0.1227
0.0200 0.0000 0.1840
0.0907 0.0000 0.1840
0.1613 0.0000 0.1840
0.2320 0.0000 0.1840
0.3027 0.0000 0.1840
0.3733 0.0000 0.1840
0.4440 0.0000 0.1840
0.5147 0.0000 0.1840
0.5853 0.0000 0.1840
0.6560 0.0000 0.1840
0.7267 0.0000 0.1840
0.7973 0.0000 0.1840
0.8680 0.0000 0.1840
0.9387 0.0000 0.1840
1.0000 0.0000 0.1840
1.0000 0.0000 0.1840
0.0200 0.0667 0.1840
0.0907 0.0667 0.1840
0.1613 0.0667 0.1840
0.2320 0.0667 0.1840
0.3027 0.0667 0.1840
0.3733 0.0667 0.1840
0.4440 0.0667 0.1840
0.5147 0.0667 0.1840
0.5853 0.0667 0.1840
0.6560 0.0667 0.1840
0.7267 0.0667 0.1840
0.7973 0.0667 0.1840
0.8680 0.0667 0.1840
0.9387 0.0667 0.1840
1.0000 0.0667 0.1840
1.0000 0.0667 0.1840
0.0200 0.1333 0.1840
0.0907 0.1333 0.1840
0.1613 0.1333 0.1840
0.2320 0.1333 0.1840
0.3027 0.1333 0.1840
0.3733 0.1333 0.1840
0.4440 0.1333 0.1840
0.5147 0.1333 0.1840
0.5853 0.1333 0.1840
0.6560 0.1333 0.1840
0.7267 0.1333 0.1840
0.7973 0.1333 0.1840
0.8680 0.1333 0.1840
0.9387 0.1333 0.1840
1.0000 0.1333 0.1840
1.0000 0.1333 0.1840
0.0200 0.2000 0.1840
0.0907 0.2000 0.1840
0.1613 0.2000 0.1840
0.2320 0.2000 0.1840
0.3027 0.2000 0.1840
0.3733 0.2000 0.1840
0.4440 0.2000 0.1840
0.5147 0.2000 0.1840
0.5853 0.2000 0.1840
0.6560 0.2000 0.1840
0.7267 0.2000 0.1840
0.7973 0.2000 0.1840
0.8680 0.2000 0.1840
0.9387 0.2000 0.1840
1.0000 0.2000 0.1840
1.0000 0.2000 0.1840
0.0200 0.2667 0.1840
0.0907 0.2667 0.1840
0.1613 0.2667 0.1840
0.2320 0.2667 0.1840
0.3027 0.2667 0.1840
0.3733 0.2667 0.1840
0.4440 0.2667 0.1840
0.5147 0.2667 0.1840
0.5853 0.2667 0.1840
0.6560 0.2667 0.1840
0.7267 0.2667 0.1840
0.7973 0.2667 0.1840
0.8680 0.2667 0.1840
0.9387 0.2667 0.1840
1.0000 0.2667 0.1840
1.0000 0.2667 0.1840
0.0200 0.3333 0.1840
0.0907 0.3333 0.1840
0.1613 0.3333 0.1840
0.2320 0.3333 0.1840
0.3027 0.3333 0.1840
0.3733 0.3333 0.1840
0.4440 0.3333 0.1840
0.5147 0.3333 0.1840
0.5853 0.3333 0.1840
0.6560 0.3333 0.1840
0.7267 0.3333 0.1840
0.7973 0.3333 0.1840
0.8680 0.3333 0.1840
0.9387 0.3333 0.1840
1.0000 0.3333 0.1840
1.0000 0.3333 0.1840
0.0200 0.4000 0.1840
0.0907 0.4000 0.1840
0.1613 0.4000 0.1840
0.2320 0.4000 0.1840
0.3027 0.4000 0.1840
0.3733 0.4000 0.1840
0.4440 0.4000 0.1840
0.5147 0.4000 0.1840
0.5853 0.4000 0.1840
0.6560 0.4000 0.1840
0.7267 0.4000 0.1840
0.7973 0.4000 0.1840
0.8680 0.4000 0.1840
0.9387 0.4000 0.1840
1.0000 0.4000 0.1840
1.0000 0.4000 0.1840
0.0200 0.4667 0.1840
0.0907 0.4667 0.1840
0.1613 0.4667 0.1840
0.2320 0.4667 0.1840
0.3027 0.4667 0.1840
0.3733 0.4667 0.1840
0.4440 0.4667 0.1840
0.5147 0.4667 0.1840
0.5853 0.4667 0.1840
0.6560 0.4667 0.1840
0.7267 0.4667 0.1840
0.7973 0.4667 0.1840
0.8680 0.4667 0.1840
0.9387 0.4667 0.1840
1.0000 0.4667 0.1840
1.0000 0.4667 0.1840
0.0200 0.5333 0.1840
0.0907 0.5333 0.1840
0.1613 0.5333 0.1840
0.2320 0.5333 0.1840
