MARC/00_ASSETS_PRO/SOBERANIA_verde.cube
TITLE "SOBERANIA_verde.cube"
LUT_3D_SIZE 6
DOMAIN_MIN 0 0 0
DOMAIN_MAX 1 1 1
0.0000 0.0100 0.0000
0.1880 0.0100 0.0000
0.3760 0.0100 0.0000
0.5640 0.0100 0.0000
0.7520 0.0100 0.0000
0.9400 0.0100 0.0000
0.0000 0.2200 0.0000
0.1880 0.2200 0.0000
0.3760 0.2200 0.0000
0.5640 0.2200 0.0000
0.7520 0.2200 0.0000
0.9400 0.2200 0.0000
0.0000 0.4300 0.0000
0.1880 0.4300 0.0000
0.3760 0.4300 0.0000
0.5640 0.4300 0.0000
0.7520 0.4300 0.0000
0.9400 0.4300 0.0000
0.0000 0.6400 0.0000
0.1880 0.6400 0.0000
0.3760 0.6400 0.0000
0.5640 0.6400 0.0000
0.7520 0.6400 0.0000
0.9400 0.6400 0.0000
0.0000 0.8500 0.0000
0.1880 0.8500 0.0000
0.3760 0.8500 0.0000
0.5640 0.8500 0.0000
0.7520 0.8500 0.0000
0.9400 0.8500 0.0000
0.0000 1.0000 0.0000
0.1880 1.0000 0.0000
0.3760 1.0000 0.0000
0.5640 1.0000 0.0000
0.7520 1.0000 0.0000
0.9400 1.0000 0.0000
0.0000 0.0100 0.1880
0.1880 0.0100 0.1880
0.3760 0.0100 0.1880
0.5640 0.0100 0.1880
0.7520 0.0100 0.1880
0.9400 0.0100 0.1880
0.0000 0.2200 0.1880
0.1880 0.2200 0.1880
0.3760 0.2200 0.1880
0.5640 0.2200 0.1880
0.7520 0.2200 0.1880
0.9400 0.2200 0.1880
0.0000 0.4300 0.1880
0.1880 0.4300 0.1880
0.3760 0.4300 0.1880
0.5640 0.4300 0.1880
0.7520 0.4300 0.1880
0.9400 0.4300 0.1880
0.0000 0.6400 0.1880
0.1880 0.6400 0.1880
0.3760 0.6400 0.1880
0.5640 0.6400 0.1880
0.7520 0.6400 0.1880
0.9400 0.6400 0.1880
0.0000 0.8500 0.1880
0.1880 0.8500 0.1880
0.3760 0.8500 0.1880
0.5640 0.8500 0.1880
0.7520 0.8500 0.1880
0.9400 0.8500 0.1880
0.0000 1.0000 0.1880
0.1880 1.0000 0.1880
0.3760 1.0000 0.1880
0.5640 1.0000 0.1880
0.7520 1.0000 0.1880
0.9400 1.0000 0.1880
0.0000 0.0100 0.3760
0.1880 0.0100 0.3760
0.3760 0.0100 0.3760
0.5640 0.0100 0.3760
0.7520 0.0100 0.3760
0.9400 0.0100 0.3760
0.0000 0.2200 0.3760
0.1880 0.2200 0.3760
0.3760 0.2200 0.3760
0.5640 0.2200 0.3760
0.7520 0.2200 0.3760
0.9400 0.2200 0.3760
0.0000 0.4300 0.3760
0.1880 0.4300 0.3760
0.3760 0.4300 0.3760
0.5640 0.4300 0.3760
0.7520 0.4300 0.3760
0.9400 0.4300 0.3760
0.0000 0.6400 0.3760
0.1880 0.6400 0.3760
0.3760 0.6400 0.3760
0.5640 0.6400 0.3760
0.7520 0.6400 0.3760
0.9400 0.6400 0.3760
0.0000 0.8500 0.3760
0.1880 0.8500 0.3760
0.3760 0.8500 0.3760
0.5640 0.8500 0.3760
0.7520 0.8500 0.3760
0.9400 0.8500 0.3760
0.0000 1.0000 0.3760
0.1880 1.0000 0.3760
0.3760 1.0000 0.3760
0.5640 1.0000 0.3760
0.7520 1.0000 0.3760
0.9400 1.0000 0.3760
0.0000 0.0100 0.5640
0.1880 0.0100 0.5640
0.3760 0.0100 0.5640
0.5640 0.0100 0.5640
0.7520 0.0100 0.5640
0.9400 0.0100 0.5640
0.0000 0.2200 0.5640
0.1880 0.2200 0.5640
0.3760 0.2200 0.5640
0.5640 0.2200 0.5640
0.7520 0.2200 0.5640
0.9400 0.2200 0.5640
0.0000 0.4300 0.5640
0.1880 0.4300 0.5640
0.3760 0.4300 0.5640
0.5640 0.4300 0.5640
0.7520 0.4300 0.5640
0.9400 0.4300 0.5640
0.0000 0.6400 0.5640
0.1880 0.6400 0.5640
0.3760 0.6400 0.5640
0.5640 0.6400 0.5640
0.7520 0.6400 0.5640
0.9400 0.6400 0.5640
0.0000 0.8500 0.5640
0.1880 0.8500 0.5640
0.3760 0.8500 0.5640
0.5640 0.8500 0.5640
0.7520 0.8500 0.5640
0.9400 0.8500 0.5640
0.0000 1.0000 0.5640
0.1880 1.0000 0.5640
0.3760 1.0000 0.5640
0.5640 1.0000 0.5640
0.7520 1.0000 0.5640
0.9400 1.0000 0.5640
0.0000 0.0100 0.7520
0.1880 0.0100 0.7520
0.3760 0.0100 0.7520
0.5640 0.0100 0.7520
0.7520 0.0100 0.7520
0.9400 0.0100 0.7520
0.0000 0.2200 0.7520
0.1880 0.2200 0.7520
0.3760 0.2200 0.7520
0.5640 0.2200 0.7520
0.7520 0.2200 0.7520
0.9400 0.2200 0.7520
0.0000 0.4300 0.7520
0.1880 0.4300 0.7520
0.3760 0.4300 0.7520
0.5640 0.4300 0.7520
0.7520 0.4300 0.7520
0.9400 0.4300 0.7520
0.0000 0.6400 0.7520
0.1880 0.6400 0.7520
0.3760 0.6400 0.7520
0.5640 0.6400 0.7520
0.7520 0.6400 0.7520
0.9400 0.6400 0.7520
0.0000 0.8500 0.7520
0.1880 0.8500 0.7520
0.3760 0.8500 0.7520
0.5640 0.8500 0.7520
0.7520 0.8500 0.7520
0.9400 0.8500 0.7520
0.0000 1.0000 0.7520
0.1880 1.0000 0.7520
0.3760 1.0000 0.7520
0.5640 1.0000 0.7520
0.7520 1.0000 0.7520
0.9400 1.0000 0.7520
0.0000 0.0100 0.9400
0.1880 0.0100 0.9400
0.3760 0.0100 0.9400
0.5640 0.0100 0.9400
0.7520 0.0100 0.9400
0.9400 0.0100 0.9400
0.0000 0.2200 0.9400
0.1880 0.2200 0.9400
0.3760 0.2200 0.9400
0.5640 0.2200 0.9400
0.7520 0.2200 0.9400
0.9400 0.2200 0.9400
0.0000 0.4300 0.9400
0.1880 0.4300 0.9400
0.3760 0.4300 0.9400
0.5640 0.4300 0.9400
0.7520 0.4300 0.9400
0.9400 0.4300 0.9400
0.0000 0.6400 0.9400
0.1880 0.6400 0.9400
0.3760 0.6400 0.9400
0.5640 0.6400 0.9400
0.7520 0.6400 0.9400
0.9400 0.6400 0.9400
0.0000 0.8500 0.9400
0.1880 0.8500 0.9400
0.3760 0.8500 0.9400
0.5640 0.8500 0.9400
0.7520 0.8500 0.9400
0.9400 0.8500 0.9400
0.0000 1.0000 0.9400
0.1880 1.0000 0.9400
0.3760 1.0000 0.9400
0.5640 1.0000 0.9400
0.7520 1.0000 0.9400
0.9400 1.0000 0.9400
