MARC/00_ASSETS_PRO/SOBERANIA_verde.cube
TITLE "SOBERANIA_verde.cube"
LUT_3D_SIZE 16
DOMAIN_MIN 0 0 0
DOMAIN_MAX 1 1 1
0.0000 0.0100 0.0000
0.0627 0.0100 0.0000
0.1253 0.0100 0.0000
0.1880 0.0100 0.0000
0.2507 0.0100 0.0000
0.3133 0.0100 0.0000
0.3760 0.0100 0.0000
0.4387 0.0100 0.0000
0.5013 0.0100 0.0000
0.5640 0.0100 0.0000
0.6267 0.0100 0.0000
0.6893 0.0100 0.0000
0.7520 0.0100 0.0000
0.8147 0.0100 0.0000
0.8773 0.0100 0.0000
0.9400 0.0100 0.0000
0.0000 0.0800 0.0000
0.0627 0.0800 0.0000
0.1253 0.0800 0.0000
0.1880 0.0800 0.0000
0.2507 0.0800 0.0000
0.3133 0.0800 0.0000
0.3760 0.0800 0.0000
0.4387 0.0800 0.0000
0.5013 0.0800 0.0000
0.5640 0.0800 0.0000
0.6267 0.0800 0.0000
0.6893 0.0800 0.0000
0.7520 0.0800 0.0000
0.8147 0.0800 0.0000
0.8773 0.0800 0.0000
0.9400 0.0800 0.0000
0.0000 0.1500 0.0000
0.0627 0.1500 0.0000
0.1253 0.1500 0.0000
0.1880 0.1500 0.0000
0.2507 0.1500 0.0000
0.3133 0.1500 0.0000
0.3760 0.1500 0.0000
0.4387 0.1500 0.0000
0.5013 0.1500 0.0000
0.5640 0.1500 0.0000
0.6267 0.1500 0.0000
0.6893 0.1500 0.0000
0.7520 0.1500 0.0000
0.8147 0.1500 0.0000
0.8773 0.1500 0.0000
0.9400 0.1500 0.0000
0.0000 0.2200 0.0000
0.0627 0.2200 0.0000
0.1253 0.2200 0.0000
0.1880 0.2200 0.0000
0.2507 0.2200 0.0000
0.3133 0.2200 0.0000
0.3760 0.2200 0.0000
0.4387 0.2200 0.0000
0.5013 0.2200 0.0000
0.5640 0.2200 0.0000
0.6267 0.2200 0.0000
0.6893 0.2200 0.0000
0.7520 0.2200 0.0000
0.8147 0.2200 0.0000
0.8773 0.2200 0.0000
0.9400 0.2200 0.0000
0.0000 0.2900 0.0000
0.0627 0.2900 0.0000
0.1253 0.2900 0.0000
0.1880 0.2900 0.0000
0.2507 0.2900 0.0000
0.3133 0.2900 0.0000
0.3760 0.2900 0.0000
0.4387 0.2900 0.0000
0.5013 0.2900 0.0000
0.5640 0.2900 0.0000
0.6267 0.2900 0.0000
0.6893 0.2900 0.0000
0.7520 0.2900 0.0000
0.8147 0.2900 0.0000
0.8773 0.2900 0.0000
0.9400 0.2900 0.0000
0.0000 0.3600 0.0000
0.0627 0.3600 0.0000
0.1253 0.3600 0.0000
0.1880 0.3600 0.0000
0.2507 0.3600 0.0000
0.3133 0.3600 0.0000
0.3760 0.3600 0.0000
0.4387 0.3600 0.0000
0.5013 0.3600 0.0000
0.5640 0.3600 0.0000
0.6267 0.3600 0.0000
0.6893 0.3600 0.0000
0.7520 0.3600 0.0000
0.8147 0.3600 0.0000
0.8773 0.3600 0.0000
0.9400 0.3600 0.0000
0.0000 0.4300 0.0000
0.0627 0.4300 0.0000
0.1253 0.4300 0.0000
0.1880 0.4300 0.0000
0.2507 0.4300 0.0000
0.3133 0.4300 0.0000
0.3760 0.4300 0.0000
0.4387 0.4300 0.0000
0.5013 0.4300 0.0000
0.5640 0.4300 0.0000
0.6267 0.4300 0.0000
0.6893 0.4300 0.0000
0.7520 0.4300 0.0000
0.8147 0.4300 0.0000
0.8773 0.4300 0.0000
0.9400 0.4300 0.0000
0.0000 0.5000 0.0000
0.0627 0.5000 0.0000
0.1253 0.5000 0.0000
0.1880 0.5000 0.0000
0.2507 0.5000 0.0000
0.3133 0.5000 0.0000
0.3760 0.5000 0.0000
0.4387 0.5000 0.0000
0.5013 0.5000 0.0000
0.5640 0.5000 0.0000
0.6267 0.5000 0.0000
0.6893 0.5000 0.0000
0.7520 0.5000 0.0000
0.8147 0.5000 0.0000
0.8773 0.5000 0.0000
0.9400 0.5000 0.0000
0.0000 0.5700 0.0000
0.0627 0.5700 0.0000
0.1253 0.5700 0.0000
0.1880 0.5700 0.0000
0.2507 0.5700 0.0000
0.3133 0.5700 0.0000
0.3760 0.5700 0.0000
0.4387 0.5700 0.0000
0.5013 0.5700 0.0000
0.5640 0.5700 0.0000
0.6267 0.5700 0.0000
0.6893 0.5700 0.0000
0.7520 0.5700 0.0000
0.8147 0.5700 0.0000
0.8773 0.5700 0.0000
0.9400 0.5700 0.0000
0.0000 0.6400 0.0000
0.0627 0.6400 0.0000
0.1253 0.6400 0.0000
0.1880 0.6400 0.0000
0.2507 0.6400 0.0000
0.3133 0.6400 0.0000
0.3760 0.6400 0.0000
0.4387 0.6400 0.0000
0.5013 0.6400 0.0000
0.5640 0.6400 0.0000
0.6267 0.6400 0.0000
0.6893 0.6400 0.0000
0.7520 0.6400 0.0000
0.8147 0.6400 0.0000
0.8773 0.6400 0.0000
0.9400 0.6400 0.0000
0.0000 0.7100 0.0000
0.0627 0.7100 0.0000
0.1253 0.7100 0.0000
0.1880 0.7100 0.0000
0.2507 0.7100 0.0000
0.3133 0.7100 0.0000
0.3760 0.7100 0.0000
0.4387 0.7100 0.0000
0.5013 0.7100 0.0000
0.5640 0.7100 0.0000
0.6267 0.7100 0.0000
0.6893 0.7100 0.0000
0.7520 0.7100 0.0000
0.8147 0.7100 0.0000
0.8773 0.7100 0.0000
0.9400 0.7100 0.0000
0.0000 0.7800 0.0000
0.0627 0.7800 0.0000
0.1253 0.7800 0.0000
0.1880 0.7800 0.0000
0.2507 0.7800 0.0000
0.3133 0.7800 0.0000
0.3760 0.7800 0.0000
0.4387 0.7800 0.0000
0.5013 0.7800 0.0000
0.5640 0.7800 0.0000
0.6267 0.7800 0.0000
0.6893 0.7800 0.0000
0.7520 0.7800 0.0000
0.8147 0.7800 0.0000
0.8773 0.7800 0.0000
0.9400 0.7800 0.0000
0.0000 0.8500 0.0000
0.0627 0.8500 0.0000
0.1253 0.8500 0.0000
0.1880 0.8500 0.0000
0.2507 0.8500 0.0000
0.3133 0.8500 0.0000
0.3760 0.8500 0.0000
0.4387 0.8500 0.0000
0.5013 0.8500 0.0000
0.5640 0.8500 0.0000
0.6267 0.8500 0.0000
0.6893 0.8500 0.0000
0.7520 0.8500 0.0000
0.8147 0.8500 0.0000
0.8773 0.8500 0.0000
0.9400 0.8500 0.0000
0.0000 0.9200 0.0000
0.0627 0.9200 0.0000
0.1253 0.9200 0.0000
0.1880 0.9200 0.0000
0.2507 0.9200 0.0000
0.3133 0.9200 0.0000
0.3760 0.9200 0.0000
0.4387 0.9200 0.0000
0.5013 0.9200 0.0000
0.5640 0.9200 0.0000
0.6267 0.9200 0.0000
0.6893 0.9200 0.0000
0.7520 0.9200 0.0000
0.8147 0.9200 0.0000
0.8773 0.9200 0.0000
0.9400 0.9200 0.0000
0.0000 0.9900 0.0000
0.0627 0.9900 0.0000
0.1253 0.9900 0.0000
0.1880 0.9900 0.0000
0.2507 0.9900 0.0000
0.3133 0.9900 0.0000
0.3760 0.9900 0.0000
0.4387 0.9900 0.0000
0.5013 0.9900 0.0000
0.5640 0.9900 0.0000
0.6267 0.9900 0.0000
0.6893 0.9900 0.0000
0.7520 0.9900 0.0000
0.8147 0.9900 0.0000
0.8773 0.9900 0.0000
0.9400 0.9900 0.0000
0.0000 1.0000 0.0000
0.0627 1.0000 0.0000
0.1253 1.0000 0.0000
0.1880 1.0000 0.0000
0.2507 1.0000 0.0000
0.3133 1.0000 0.0000
0.3760 1.0000 0.0000
0.4387 1.0000 0.0000
0.5013 1.0000 0.0000
0.5640 1.0000 0.0000
0.6267 1.0000 0.0000
0.6893 1.0000 0.0000
0.7520 1.0000 0.0000
0.8147 1.0000 0.0000
0.8773 1.0000 0.0000
0.9400 1.0000 0.0000
0.0000 0.0100 0.0627
0.0627 0.0100 0.0627
0.1253 0.0100 0.0627
0.1880 0.0100 0.0627
0.2507 0.0100 0.0627
0.3133 0.0100 0.0627
0.3760 0.0100 0.0627
0.4387 0.0100 0.0627
0.5013 0.0100 0.0627
0.5640 0.0100 0.0627
0.6267 0.0100 0.0627
0.6893 0.0100 0.0627
0.7520 0.0100 0.0627
0.8147 0.0100 0.0627
0.8773 0.0100 0.0627
0.9400 0.0100 0.0627
0.0000 0.0800 0.0627
0.0627 0.0800 0.0627
0.1253 0.0800 0.0627
0.1880 0.0800 0.0627
0.2507 0.0800 0.0627
0.3133 0.0800 0.0627
0.3760 0.0800 0.0627
0.4387 0.0800 0.0627
0.5013 0.0800 0.0627
0.5640 0.0800 0.0627
0.6267 0.0800 0.0627
0.6893 0.0800 0.0627
0.7520 0.0800 0.0627
0.8147 0.0800 0.0627
0.8773 0.0800 0.0627
0.9400 0.0800 0.0627
0.0000 0.1500 0.0627
0.0627 0.1500 0.0627
0.1253 0.1500 0.0627
0.1880 0.1500 0.0627
0.2507 0.1500 0.0627
0.3133 0.1500 0.0627
0.3760 0.1500 0.0627
0.4387 0.1500 0.0627
0.5013 0.1500 0.0627
0.5640 0.1500 0.0627
0.6267 0.1500 0.0627
0.6893 0.1500 0.0627
0.7520 0.1500 0.0627
0.8147 0.1500 0.0627
0.8773 0.1500 0.0627
0.9400 0.1500 0.0627
0.0000 0.2200 0.0627
0.0627 0.2200 0.0627
0.1253 0.2200 0.0627
0.1880 0.2200 0.0627
0.2507 0.2200 0.0627
0.3133 0.2200 0.0627
0.3760 0.2200 0.0627
0.4387 0.2200 0.0627
0.5013 0.2200 0.0627
0.5640 0.2200 0.0627
0.6267 0.2200 0.0627
0.6893 0.2200 0.0627
0.7520 0.2200 0.0627
0.8147 0.2200 0.0627
0.8773 0.2200 0.0627
0.9400 0.2200 0.0627
0.0000 0.2900 0.0627
0.0627 0.2900 0.0627
0.1253 0.2900 0.0627
0.1880 0.2900 0.0627
0.2507 0.2900 0.0627
0.3133 0.2900 0.0627
0.3760 0.2900 0.0627
0.4387 0.2900 0.0627
0.5013 0.2900 0.0627
0.5640 0.2900 0.0627
0.6267 0.2900 0.0627
0.6893 0.2900 0.0627
0.7520 0.2900 0.0627
0.8147 0.2900 0.0627
0.8773 0.2900 0.0627
0.9400 0.2900 0.0627
0.0000 0.3600 0.0627
0.0627 0.3600 0.0627
0.1253 0.3600 0.0627
0.1880 0.3600 0.0627
0.2507 0.3600 0.0627
0.3133 0.3600 0.0627
0.3760 0.3600 0.0627
0.4387 0.3600 0.0627
0.5013 0.3600 0.0627
0.5640 0.3600 0.0627
0.6267 0.3600 0.0627
0.6893 0.3600 0.0627
0.7520 0.3600 0.0627
0.8147 0.3600 0.0627
0.8773 0.3600 0.0627
0.9400 0.3600 0.0627
0.0000 0.4300 0.0627
0.0627 0.4300 0.0627
0.1253 0.4300 0.0627
0.1880 0.4300 0.0627
0.2507 0.4300 0.0627
0.3133 0.4300 0.0627
0.3760 0.4300 0.0627
0.4387 0.4300 0.0627
0.5013 0.4300 0.0627
0.5640 0.4300 0.0627
0.6267 0.4300 0.0627
0.6893 0.4300 0.0627
0.7520 0.4300 0.0627
0.8147 0.4300 0.0627
0.8773 0.4300 0.0627
0.9400 0.4300 0.0627
0.0000 0.5000 0.0627
0.0627 0.5000 0.0627
0.1253 0.5000 0.0627
0.1880 0.5000 0.0627
0.2507 0.5000 0.0627
0.3133 0.5000 0.0627
0.3760 0.5000 0.0627
0.4387 0.5000 0.0627
0.5013 0.5000 0.0627
0.5640 0.5000 0.0627
0.6267 0.5000 0.0627
0.6893 0.5000 0.0627
0.7520 0.5000 0.0627
0.8147 0.5000 0.0627
0.8773 0.5000 0.0627
0.9400 0.5000 0.0627
0.0000 0.5700 0.0627
0.0627 0.5700 0.0627
0.1253 0.5700 0.0627
0.1880 0.5700 0.0627
0.2507 0.5700 0.0627
0.3133 0.5700 0.0627
0.3760 0.5700 0.0627
0.4387 0.5700 0.0627
0.5013 0.5700 0.0627
0.5640 0.5700 0.0627
0.6267 0.5700 0.0627
0.6893 0.5700 0.0627
0.7520 0.5700 0.0627
0.8147 0.5700 0.0627
0.8773 0.5700 0.0627
0.9400 0.5700 0.0627
0.0000 0.6400 0.0627
0.0627 0.6400 0.0627
0.1253 0.6400 0.0627
0.1880 0.6400 0.0627
0.2507 0.6400 0.0627
0.3133 0.6400 0.0627
0.3760 0.6400 0.0627
0.4387 0.6400 0.0627
0.5013 0.6400 0.0627
0.5640 0.6400 0.0627
0.6267 0.6400 0.0627
0.6893 0.6400 0.0627
0.7520 0.6400 0.0627
0.8147 0.6400 0.0627
0.8773 0.6400 0.0627
0.9400 0.6400 0.0627
0.0000 0.7100 0.0627
0.0627 0.7100 0.0627
0.1253 0.7100 0.0627
0.1880 0.7100 0.0627
0.2507 0.7100 0.0627
0.3133 0.7100 0.0627
0.3760 0.7100 0.0627
0.4387 0.7100 0.0627
0.5013 0.7100 0.0627
0.5640 0.7100 0.0627
0.6267 0.7100 0.0627
0.6893 0.7100 0.0627
0.7520 0.7100 0.0627
0.8147 0.7100 0.0627
0.8773 0.7100 0.0627
0.9400 0.7100 0.0627
0.0000 0.7800 0.0627
0.0627 0.7800 0.0627
0.1253 0.7800 0.0627
0.1880 0.7800 0.0627
0.2507 0.7800 0.0627
0.3133 0.7800 0.0627
0.3760 0.7800 0.0627
0.4387 0.7800 0.0627
0.5013 0.7800 0.0627
0.5640 0.7800 0.0627
0.6267 0.7800 0.0627
0.6893 0.7800 0.0627
0.7520 0.7800 0.0627
0.8147 0.7800 0.0627
0.8773 0.7800 0.0627
0.9400 0.7800 0.0627
0.0000 0.8500 0.0627
0.0627 0.8500 0.0627
0.1253 0.8500 0.0627
0.1880 0.8500 0.0627
0.2507 0.8500 0.0627
0.3133 0.8500 0.0627
0.3760 0.8500 0.0627
0.4387 0.8500 0.0627
0.5013 0.8500 0.0627
0.5640 0.8500 0.0627
0.6267 0.8500 0.0627
0.6893 0.8500 0.0627
0.7520 0.8500 0.0627
0.8147 0.8500 0.0627
0.8773 0.8500 0.0627
0.9400 0.8500 0.0627
0.0000 0.9200 0.0627
0.0627 0.9200 0.0627
0.1253 0.9200 0.0627
0.1880 0.9200 0.0627
0.2507 0.9200 0.0627
0.3133 0.9200 0.0627
0.3760 0.9200 0.0627
0.4387 0.9200 0.0627
0.5013 0.9200 0.0627
0.5640 0.9200 0.0627
0.6267 0.9200 0.0627
0.6893 0.9200 0.0627
0.7520 0.9200 0.0627
0.8147 0.9200 0.0627
0.8773 0.9200 0.0627
0.9400 0.9200 0.0627
0.0000 0.9900 0.0627
0.0627 0.9900 0.0627
0.1253 0.9900 0.0627
0.1880 0.9900 0.0627
0.2507 0.9900 0.0627
0.3133 0.9900 0.0627
0.3760 0.9900 0.0627
0.4387 0.9900 0.0627
0.5013 0.9900 0.0627
0.5640 0.9900 0.0627
0.6267 0.9900 0.0627
0.6893 0.9900 0.0627
0.7520 0.9900 0.0627
0.8147 0.9900 0.0627
0.8773 0.9900 0.0627
0.9400 0.9900 0.0627
0.0000 1.0000 0.0627
0.0627 1.0000 0.0627
0.1253 1.0000 0.0627
0.1880 1.0000 0.0627
0.2507 1.0000 0.0627
0.3133 1.0000 0.0627
0.3760 1.0000 0.0627
0.4387 1.0000 0.0627
0.5013 1.0000 0.0627
0.5640 1.0000 0.0627
0.6267 1.0000 0.0627
0.6893 1.0000 0.0627
0.7520 1.0000 0.0627
0.8147 1.0000 0.0627
0.8773 1.0000 0.0627
0.9400 1.0000 0.0627
0.0000 0.0100 0.1253
0.0627 0.0100 0.1253
0.1253 0.0100 0.1253
0.1880 0.0100 0.1253
0.2507 0.0100 0.1253
0.3133 0.0100 0.1253
0.3760 0.0100 0.1253
0.4387 0.0100 0.1253
0.5013 0.0100 0.1253
0.5640 0.0100 0.1253
0.6267 0.0100 0.1253
0.6893 0.0100 0.1253
0.7520 0.0100 0.1253
0.8147 0.0100 0.1253
0.8773 0.0100 0.1253
0.9400 0.0100 0.1253
0.0000 0.0800 0.1253
0.0627 0.0800 0.1253
0.1253 0.0800 0.1253
0.1880 0.0800 0.1253
0.2507 0.0800 0.1253
0.3133 0.0800 0.1253
0.3760 0.0800 0.1253
0.4387 0.0800 0.1253
0.5013 0.0800 0.1253
0.5640 0.0800 0.1253
0.6267 0.0800 0.1253
0.6893 0.0800 0.1253
0.7520 0.0800 0.1253
0.8147 0.0800 0.1253
0.8773 0.0800 0.1253
0.9400 0.0800 0.1253
0.0000 0.1500 0.1253
0.0627 0.1500 0.1253
0.1253 0.1500 0.1253
0.1880 0.1500 0.1253
0.2507 0.1500 0.1253
0.3133 0.1500 0.1253
0.3760 0.1500 0.1253
0.4387 0.1500 0.1253
0.5013 0.1500 0.1253
0.5640 0.1500 0.1253
0.6267 0.1500 0.1253
0.6893 0.1500 0.1253
0.7520 0.1500 0.1253
0.8147 0.1500 0.1253
0.8773 0.1500 0.1253
0.9400 0.1500 0.1253
0.0000 0.2200 0.1253
0.0627 0.2200 0.1253
0.1253 0.2200 0.1253
0.1880 0.2200 0.1253
0.2507 0.2200 0.1253
0.3133 0.2200 0.1253
0.3760 0.2200 0.1253
0.4387 0.2200 0.1253
0.5013 0.2200 0.1253
0.5640 0.2200 0.1253
0.6267 0.2200 0.1253
0.6893 0.2200 0.1253
0.7520 0.2200 0.1253
0.8147 0.2200 0.1253
0.8773 0.2200 0.1253
0.9400 0.2200 0.1253
0.0000 0.2900 0.1253
0.0627 0.2900 0.1253
0.1253 0.2900 0.1253
0.1880 0.2900 0.1253
0.2507 0.2900 0.1253
0.3133 0.2900 0.1253
0.3760 0.2900 0.1253
0.4387 0.2900 0.1253
0.5013 0.2900 0.1253
0.5640 0.2900 0.1253
0.6267 0.2900 0.1253
0.6893 0.2900 0.1253
0.7520 0.2900 0.1253
0.8147 0.2900 0.1253
0.8773 0.2900 0.1253
0.9400 0.2900 0.1253
0.0000 0.3600 0.1253
0.0627 0.3600 0.1253
0.1253 0.3600 0.1253
0.1880 0.3600 0.1253
0.2507 0.3600 0.1253
0.3133 0.3600 0.1253
0.3760 0.3600 0.1253
0.4387 0.3600 0.1253
0.5013 0.3600 0.1253
0.5640 0.3600 0.1253
0.6267 0.3600 0.1253
0.6893 0.3600 0.1253
0.7520 0.3600 0.1253
0.8147 0.3600 0.1253
0.8773 0.3600 0.1253
0.9400 0.3600 0.1253
0.0000 0.4300 0.1253
0.0627 0.4300 0.1253
0.1253 0.4300 0.1253
0.1880 0.4300 0.1253
0.2507 0.4300 0.1253
0.3133 0.4300 0.1253
0.3760 0.4300 0.1253
0.4387 0.4300 0.1253
0.5013 0.4300 0.1253
0.5640 0.4300 0.1253
0.6267 0.4300 0.1253
0.6893 0.4300 0.1253
0.7520 0.4300 0.1253
0.8147 0.4300 0.1253
0.8773 0.4300 0.1253
0.9400 0.4300 0.1253
0.0000 0.5000 0.1253
0.0627 0.5000 0.1253
0.1253 0.5000 0.1253
0.1880 0.5000 0.1253
0.2507 0.5000 0.1253
0.3133 0.5000 0.1253
0.3760 0.5000 0.1253
0.4387 0.5000 0.1253
0.5013 0.5000 0.1253
0.5640 0.5000 0.1253
0.6267 0.5000 0.1253
0.6893 0.5000 0.1253
0.7520 0.5000 0.1253
0.8147 0.5000 0.1253
0.8773 0.5000 0.1253
0.9400 0.5000 0.1253
0.0000 0.5700 0.1253
0.0627 0.5700 0.1253
0.1253 0.5700 0.1253
0.1880 0.5700 0.1253
0.2507 0.5700 0.1253
0.3133 0.5700 0.1253
0.3760 0.5700 0.1253
0.4387 0.5700 0.1253
0.5013 0.5700 0.1253
0.5640 0.5700 0.1253
0.6267 0.5700 0.1253
0.6893 0.5700 0.1253
0.7520 0.5700 0.1253
0.8147 0.5700 0.1253
0.8773 0.5700 0.1253
0.9400 0.5700 0.1253
0.0000 0.6400 0.1253
0.0627 0.6400 0.1253
0.1253 0.6400 0.1253
0.1880 0.6400 0.1253
0.2507 0.6400 0.1253
0.3133 0.6400 0.1253
0.3760 0.6400 0.1253
0.4387 0.6400 0.1253
0.5013 0.6400 0.1253
0.5640 0.6400 0.1253
0.6267 0.6400 0.1253
0.6893 0.6400 0.1253
0.7520 0.6400 0.1253
0.8147 0.6400 0.1253
0.8773 0.6400 0.1253
0.9400 0.6400 0.1253
0.0000 0.7100 0.1253
0.0627 0.7100 0.1253
0.1253 0.7100 0.1253
0.1880 0.7100 0.1253
0.2507 0.7100 0.1253
0.3133 0.7100 0.1253
0.3760 0.7100 0.1253
0.4387 0.7100 0.1253
0.5013 0.7100 0.1253
0.5640 0.7100 0.1253
0.6267 0.7100 0.1253
0.6893 0.7100 0.1253
0.7520 0.7100 0.1253
0.8147 0.7100 0.1253
0.8773 0.7100 0.1253
0.9400 0.7100 0.1253
0.0000 0.7800 0.1253
0.0627 0.7800 0.1253
0.1253 0.7800 0.1253
0.1880 0.7800 0.1253
0.2507 0.7800 0.1253
0.3133 0.7800 0.1253
0.3760 0.7800 0.1253
0.4387 0.7800 0.1253
0.5013 0.7800 0.1253
0.5640 0.7800 0.1253
0.6267 0.7800 0.1253
0.6893 0.7800 0.1253
0.7520 0.7800 0.1253
0.8147 0.7800 0.1253
0.8773 0.7800 0.1253
0.9400 0.7800 0.1253
0.0000 0.8500 0.1253
0.0627 0.8500 0.1253
0.1253 0.8500 0.1253
0.1880 0.8500 0.1253
0.2507 0.8500 0.1253
0.3133 0.8500 0.1253
0.3760 0.8500 0.1253
0.4387 0.8500 0.1253
0.5013 0.8500 0.1253
0.5640 0.8500 0.1253
0.6267 0.8500 0.1253
0.6893 0.8500 0.1253
0.7520 0.8500 0.1253
0.8147 0.8500 0.1253
0.8773 0.8500 0.1253
0.9400 0.8500 0.1253
0.0000 0.9200 0.1253
0.0627 0.9200 0.1253
0.1253 0.9200 0.1253
0.1880 0.9200 0.1253
0.2507 0.9200 0.1253
0.3133 0.9200 0.1253
0.3760 0.9200 0.1253
0.4387 0.9200 0.1253
0.5013 0.9200 0.1253
0.5640 0.9200 0.1253
0.6267 0.9200 0.1253
0.6893 0.9200 0.1253
0.7520 0.9200 0.1253
0.8147 0.9200 0.1253
0.8773 0.9200 0.1253
0.9400 0.9200 0.1253
0.0000 0.9900 0.1253
0.0627 0.9900 0.1253
0.1253 0.9900 0.1253
0.1880 0.9900 0.1253
0.2507 0.9900 0.1253
0.3133 0.9900 0.1253
0.3760 0.9900 0.1253
0.4387 0.9900 0.1253
0.5013 0.9900 0.1253
0.5640 0.9900 0.1253
0.6267 0.9900 0.1253
0.6893 0.9900 0.1253
0.7520 0.9900 0.1253
0.8147 0.9900 0.1253
0.8773 0.9900 0.1253
0.9400 0.9900 0.1253
0.0000 1.0000 0.1253
0.0627 1.0000 0.1253
0.1253 1.0000 0.1253
0.1880 1.0000 0.1253
0.2507 1.0000 0.1253
0.3133 1.0000 0.1253
0.3760 1.0000 0.1253
0.4387 1.0000 0.1253
0.5013 1.0000 0.1253
0.5640 1.0000 0.1253
0.6267 1.0000 0.1253
0.6893 1.0000 0.1253
0.7520 1.0000 0.1253
0.8147 1.0000 0.1253
0.8773 1.0000 0.1253
0.9400 1.0000 0.1253
0.0000 0.0100 0.1880
0.0627 0.0100 0.1880
0.1253 0.0100 0.1880
0.1880 0.0100 0.1880
0.2507 0.0100 0.1880
0.3133 0.0100 0.1880
0.3760 0.0100 0.1880
0.4387 0.0100 0.1880
0.5013 0.0100 0.1880
0.5640 0.0100 0.1880
0.6267 0.0100 0.1880
0.6893 0.0100 0.1880
0.7520 0.0100 0.1880
0.8147 0.0100 0.1880
0.8773 0.0100 0.1880
0.9400 0.0100 0.1880
0.0000 0.0800 0.1880
0.0627 0.0800 0.1880
0.1253 0.0800 0.1880
0.1880 0.0800 0.1880
0.2507 0.0800 0.1880
0.3133 0.0800 0.1880
0.3760 0.0800 0.1880
0.4387 0.0800 0.1880
0.5013 0.0800 0.1880
0.5640 0.0800 0.1880
0.6267 0.0800 0.1880
0.6893 0.0800 0.1880
0.7520 0.0800 0.1880
0.8147 0.0800 0.1880
0.8773 0.0800 0.1880
0.9400 0.0800 0.1880
0.0000 0.1500 0.1880
0.0627 0.1500 0.1880
0.1253 0.1500 0.1880
0.1880 0.1500 0.1880
0.2507 0.1500 0.1880
0.3133 0.1500 0.1880
0.3760 0.1500 0.1880
0.4387 0.1500 0.1880
0.5013 0.1500 0.1880
0.5640 0.1500 0.1880
0.6267 0.1500 0.1880
0.6893 0.1500 0.1880
0.7520 0.1500 0.1880
0.8147 0.1500 0.1880
0.8773 0.1500 0.1880
0.9400 0.1500 0.1880
0.0000 0.2200 0.1880
0.0627 0.2200 0.1880
0.1253 0.2200 0.1880
0.1880 0.2200 0.1880
0.2507 0.2200 0.1880
0.3133 0.2200 0.1880
0.3760 0.2200 0.1880
0.4387 0.2200 0.1880
0.5013 0.2200 0.1880
0.5640 0.2200 0.1880
0.6267 0.2200 0.1880
0.6893 0.2200 0.1880
0.7520 0.2200 0.1880
0.8147 0.2200 0.1880
0.8773 0.2200 0.1880
0.9400 0.2200 0.1880
0.0000 0.2900 0.1880
0.0627 0.2900 0.1880
0.1253 0.2900 0.1880
0.1880 0.2900 0.1880
0.2507 0.2900 0.1880
0.3133 0.2900 0.1880
0.3760 0.2900 0.1880
0.4387 0.2900 0.1880
0.5013 0.2900 0.1880
0.5640 0.2900 0.1880
0.6267 0.2900 0.1880
0.6893 0.2900 0.1880
0.7520 0.2900 0.1880
0.8147 0.2900 0.1880
0.8773 0.2900 0.1880
0.9400 0.2900 0.1880
0.0000 0.3600 0.1880
0.0627 0.3600 0.1880
0.1253 0.3600 0.1880
0.1880 0.3600 0.1880
0.2507 0.3600 0.1880
0.3133 0.3600 0.1880
0.3760 0.3600 0.1880
0.4387 0.3600 0.1880
0.5013 0.3600 0.1880
0.5640 0.3600 0.1880
0.6267 0.3600 0.1880
0.6893 0.3600 0.1880
0.7520 0.3600 0.1880
0.8147 0.3600 0.1880
0.8773 0.3600 0.1880
0.9400 0.3600 0.1880
0.0000 0.4300 0.1880
0.0627 0.4300 0.1880
0.1253 0.4300 0.1880
0.1880 0.4300 0.1880
0.2507 0.4300 0.1880
0.3133 0.4300 0.1880
0.3760 0.4300 0.1880
0.4387 0.4300 0.1880
0.5013 0.4300 0.1880
0.5640 0.4300 0.1880
0.6267 0.4300 0.1880
0.6893 0.4300 0.1880
0.7520 0.4300 0.1880
0.8147 0.4300 0.1880
0.8773 0.4300 0.1880
0.9400 0.4300 0.1880
0.0000 0.5000 0.1880
0.0627 0.5000 0.1880
0.1253 0.5000 0.1880
0.1880 0.5000 0.1880
0.2507 0.5000 0.1880
0.3133 0.5000 0.1880
0.3760 0.5000 0.1880
0.4387 0.5000 0.1880
0.5013 0.5000 0.1880
0.5640 0.5000 0.1880
0.6267 0.5000 0.1880
0.6893 0.5000 0.1880
0.7520 0.5000 0.1880
0.8147 0.5000 0.1880
0.8773 0.5000 0.1880
0.9400 0.5000 0.1880
0.0000 0.5700 0.1880
0.0627 0.5700 0.1880
0.1253 0.5700 0.1880
0.1880 0.5700 0.1880
